svg/u1f6a6.svg

<svg viewBox="0 0 128 128" xmlns="http://www.w3.org/2000/svg">
  <g>
    <path d="M83.05,124H44.95c-5.26,0-9.53-4.27-9.53-9.53V13.53c0-5.26,4.27-9.53,9.53-9.53h38.11 c5.26,0,9.53,4.27,9.53,9.53v100.94C92.58,119.73,88.32,124,83.05,124z" fill="#424242"/>
    <g>
      <g>
        <g>
          <circle cx="64" cy="102.92" r="13.41" fill="#4CAF50"/>
          <path d="M54.64,104.09c-1.14-0.36-1.45-4.36,1.22-7.57c3.98-4.79,9.71-4.67,10.32-2.12 c0.85,3.57-3.67,2.16-7.11,5.04C56.92,101.24,56.45,104.66,54.64,104.09z" fill="#6FD86F"/>
        </g>
        <g>
          <circle cx="64" cy="66.21" r="13.41" fill="#FFCA28"/>
          <path d="M54.64,67.39c-1.14-0.36-1.45-4.36,1.22-7.57c3.98-4.79,9.71-4.67,10.32-2.12 c0.85,3.57-3.67,2.16-7.11,5.04C56.92,64.54,56.45,67.96,54.64,67.39z" fill="#FFF59D"/>
        </g>
        <g>
          <circle cx="64" cy="29.5" r="13.41" fill="#F44336"/>
          <path d="M54.64,30.68c-1.14-0.36-1.45-4.36,1.22-7.57c3.98-4.79,9.71-4.67,10.32-2.12 c0.85,3.57-3.67,2.16-7.11,5.04C56.92,27.83,56.45,31.25,54.64,30.68z" fill="#FF8155"/>
        </g>
      </g>
      <path d="M49.48,23.12c-0.47,0.92-1.89,0.88-1.76-0.52c0.32-3.41,2.26-6.09,3.85-7.73 c3.16-3.32,7.8-5.21,12.43-5.2c4.63-0.02,9.27,1.88,12.44,5.19c1.59,1.64,3.85,5.3,3.86,7.85c0,1.11-1.26,1.41-1.72,0.51 c-1.15-2.24-4.71-9.55-14.57-9.55C54.13,13.67,50.62,20.9,49.48,23.12z" fill="#757575"/>
      <path d="M49.48,96.62c-0.47,0.92-1.89,0.88-1.76-0.52c0.32-3.41,2.26-6.09,3.85-7.73 c3.16-3.32,7.8-5.21,12.43-5.2c4.63-0.02,9.27,1.88,12.44,5.19c1.59,1.64,3.85,5.3,3.86,7.85c0,1.11-1.26,1.41-1.72,0.51 c-1.15-2.24-4.71-9.55-14.57-9.55C54.13,87.17,50.62,94.41,49.48,96.62z" fill="#757575"/>
      <path d="M49.48,59.87c-0.47,0.92-1.89,0.88-1.76-0.52c0.32-3.41,2.26-6.09,3.85-7.73 c3.16-3.32,7.8-5.21,12.43-5.2c4.63-0.02,9.27,1.88,12.44,5.19c1.59,1.64,3.85,5.3,3.86,7.85c0,1.11-1.26,1.41-1.72,0.51 c-1.15-2.24-4.71-9.55-14.57-9.55S50.62,57.65,49.48,59.87z" fill="#757575"/>
    </g>
  </g>
</svg>

<svg viewBox="0 0 128 128" xmlns="http://www.w3.org/2000/svg">
  <defs/>
  <path d="M83.05,124 L44.95,124 C39.69,124 35.42,119.73 35.42,114.47 L35.42,13.53 C35.42,8.27 39.69,4 44.95,4 L83.06,4 C88.32,4 92.59,8.27 92.59,13.53 L92.59,114.47 C92.58,119.73 88.32,124 83.05,124 Z" fill="#424242"/>
  <path d="M77.41,102.92 A13.41 13.41 0 1 1 50.59,102.92 A13.41 13.41 0 1 1 77.41,102.92 Z" fill="#4CAF50"/>
  <path d="M54.64,104.09 C53.5,103.73 53.19,99.73 55.86,96.52 C59.84,91.73 65.57,91.85 66.18,94.4 C67.03,97.97 62.51,96.56 59.07,99.44 C56.92,101.24 56.45,104.66 54.64,104.09 Z" fill="#6FD86F"/>
  <path d="M77.41,66.21 A13.41 13.41 0 1 1 50.59,66.21 A13.41 13.41 0 1 1 77.41,66.21 Z" fill="#FFCA28"/>
  <path d="M54.64,67.39 C53.5,67.03 53.19,63.03 55.86,59.82 C59.84,55.03 65.57,55.15 66.18,57.7 C67.03,61.27 62.51,59.86 59.07,62.74 C56.92,64.54 56.45,67.96 54.64,67.39 Z" fill="#FFF59D"/>
  <path d="M77.41,29.5 A13.41 13.41 0 1 1 50.59,29.5 A13.41 13.41 0 1 1 77.41,29.5 Z" fill="#F44336"/>
  <path d="M54.64,30.68 C53.5,30.32 53.19,26.32 55.86,23.11 C59.84,18.32 65.57,18.44 66.18,20.99 C67.03,24.56 62.51,23.15 59.07,26.03 C56.92,27.83 56.45,31.25 54.64,30.68 Z" fill="#FF8155"/>
  <path d="M49.48,23.12 C49.01,24.04 47.59,24 47.72,22.6 C48.04,19.19 49.98,16.51 51.57,14.87 C54.73,11.55 59.37,9.66 64,9.67 C68.63,9.65 73.27,11.55 76.44,14.86 C78.03,16.5 80.29,20.16 80.3,22.71 C80.3,23.82 79.04,24.12 78.58,23.22 C77.43,20.98 73.87,13.67 64.01,13.67 C54.13,13.67 50.62,20.9 49.48,23.12 Z" fill="#757575"/>
  <path d="M49.48,96.62 C49.01,97.54 47.59,97.5 47.72,96.1 C48.04,92.69 49.98,90.01 51.57,88.37 C54.73,85.05 59.37,83.16 64,83.17 C68.63,83.15 73.27,85.05 76.44,88.36 C78.03,90 80.29,93.66 80.3,96.21 C80.3,97.32 79.04,97.62 78.58,96.72 C77.43,94.48 73.87,87.17 64.01,87.17 C54.13,87.17 50.62,94.41 49.48,96.62 Z" fill="#757575"/>
  <path d="M49.48,59.87 C49.01,60.79 47.59,60.75 47.72,59.35 C48.04,55.94 49.98,53.26 51.57,51.62 C54.73,48.3 59.37,46.41 64,46.42 C68.63,46.4 73.27,48.3 76.44,51.61 C78.03,53.25 80.29,56.91 80.3,59.46 C80.3,60.57 79.04,60.87 78.58,59.97 C77.43,57.73 73.87,50.42 64.01,50.42 C54.15,50.42 50.62,57.65 49.48,59.87 Z" fill="#757575"/>
</svg>
